docs/assets/img/icon/settigns.svg

<svg xmlns="http://www.w3.org/2000/svg" xmlns:xlink="http://www.w3.org/1999/xlink" viewBox="0 0 32 32" version="1.1">
<g id="surface1">
<path style=" " d="M 13.1875 3 L 13.03125 3.8125 L 12.4375 6.78125 C 11.484375 7.15625 10.625 7.683594 9.84375 8.3125 L 6.9375 7.3125 L 6.15625 7.0625 L 5.75 7.78125 L 3.75 11.21875 L 3.34375 11.9375 L 3.9375 12.46875 L 6.1875 14.4375 C 6.105469 14.949219 6 15.460938 6 16 C 6 16.539063 6.105469 17.050781 6.1875 17.5625 L 3.9375 19.53125 L 3.34375 20.0625 L 3.75 20.78125 L 5.75 24.21875 L 6.15625 24.9375 L 6.9375 24.6875 L 9.84375 23.6875 C 10.625 24.316406 11.484375 24.84375 12.4375 25.21875 L 13.03125 28.1875 L 13.1875 29 L 18.8125 29 L 18.96875 28.1875 L 19.5625 25.21875 C 20.515625 24.84375 21.375 24.316406 22.15625 23.6875 L 25.0625 24.6875 L 25.84375 24.9375 L 26.25 24.21875 L 28.25 20.78125 L 28.65625 20.0625 L 28.0625 19.53125 L 25.8125 17.5625 C 25.894531 17.050781 26 16.539063 26 16 C 26 15.460938 25.894531 14.949219 25.8125 14.4375 L 28.0625 12.46875 L 28.65625 11.9375 L 28.25 11.21875 L 26.25 7.78125 L 25.84375 7.0625 L 25.0625 7.3125 L 22.15625 8.3125 C 21.375 7.683594 20.515625 7.15625 19.5625 6.78125 L 18.96875 3.8125 L 18.8125 3 Z M 14.8125 5 L 17.1875 5 L 17.6875 7.59375 L 17.8125 8.1875 L 18.375 8.375 C 19.511719 8.730469 20.542969 9.332031 21.40625 10.125 L 21.84375 10.53125 L 22.40625 10.34375 L 24.9375 9.46875 L 26.125 11.5 L 24.125 13.28125 L 23.65625 13.65625 L 23.8125 14.25 C 23.941406 14.820313 24 15.402344 24 16 C 24 16.597656 23.941406 17.179688 23.8125 17.75 L 23.6875 18.34375 L 24.125 18.71875 L 26.125 20.5 L 24.9375 22.53125 L 22.40625 21.65625 L 21.84375 21.46875 L 21.40625 21.875 C 20.542969 22.667969 19.511719 23.269531 18.375 23.625 L 17.8125 23.8125 L 17.6875 24.40625 L 17.1875 27 L 14.8125 27 L 14.3125 24.40625 L 14.1875 23.8125 L 13.625 23.625 C 12.488281 23.269531 11.457031 22.667969 10.59375 21.875 L 10.15625 21.46875 L 9.59375 21.65625 L 7.0625 22.53125 L 5.875 20.5 L 7.875 18.71875 L 8.34375 18.34375 L 8.1875 17.75 C 8.058594 17.179688 8 16.597656 8 16 C 8 15.402344 8.058594 14.820313 8.1875 14.25 L 8.34375 13.65625 L 7.875 13.28125 L 5.875 11.5 L 7.0625 9.46875 L 9.59375 10.34375 L 10.15625 10.53125 L 10.59375 10.125 C 11.457031 9.332031 12.488281 8.730469 13.625 8.375 L 14.1875 8.1875 L 14.3125 7.59375 Z M 16 11 C 13.25 11 11 13.25 11 16 C 11 18.75 13.25 21 16 21 C 18.75 21 21 18.75 21 16 C 21 13.25 18.75 11 16 11 Z M 16 13 C 17.667969 13 19 14.332031 19 16 C 19 17.667969 17.667969 19 16 19 C 14.332031 19 13 17.667969 13 16 C 13 14.332031 14.332031 13 16 13 Z "></path>
</g>
</svg>

<svg xmlns="http://www.w3.org/2000/svg" viewBox="0 0 32 32"><path d="M13.188 3l-.157.813-.594 2.968a9.939 9.939 0 0 0-2.593 1.532l-2.906-1-.782-.25-.406.718-2 3.438-.406.719.594.53 2.25 1.97C6.104 14.948 6 15.46 6 16c0 .54.105 1.05.188 1.563l-2.25 1.968-.594.532.406.718 2 3.438.406.718.782-.25 2.906-1a9.939 9.939 0 0 0 2.594 1.532l.593 2.968.156.813h5.626l.156-.813.593-2.968a9.939 9.939 0 0 0 2.594-1.532l2.907 1 .78.25.407-.718 2-3.438.406-.718-.593-.532-2.25-1.968C25.895 17.05 26 16.538 26 16c0-.54-.105-1.05-.188-1.563l2.25-1.968.594-.531-.406-.72-2-3.437-.406-.718-.782.25-2.906 1a9.939 9.939 0 0 0-2.593-1.532l-.594-2.968L18.812 3zm1.624 2h2.376l.5 2.594.125.593.562.188a8.017 8.017 0 0 1 3.031 1.75l.438.406.562-.187 2.532-.875 1.187 2.031-2 1.781-.469.375.157.594c.128.57.187 1.152.187 1.75 0 .598-.059 1.18-.188 1.75l-.125.594.438.375 2 1.781-1.188 2.031-2.53-.875-.563-.187-.438.406a8.017 8.017 0 0 1-3.031 1.75l-.563.188-.125.593-.5 2.594h-2.375l-.5-2.594-.124-.593-.563-.188a8.017 8.017 0 0 1-3.031-1.75l-.438-.406-.562.187-2.531.875L5.875 20.5l2-1.781.469-.375-.156-.594A7.901 7.901 0 0 1 8 16c0-.598.059-1.18.188-1.75l.156-.594-.469-.375-2-1.781 1.188-2.031 2.53.875.563.187.438-.406a8.017 8.017 0 0 1 3.031-1.75l.563-.188.124-.593zM16 11c-2.75 0-5 2.25-5 5s2.25 5 5 5 5-2.25 5-5-2.25-5-5-5zm0 2c1.668 0 3 1.332 3 3s-1.332 3-3 3-3-1.332-3-3 1.332-3 3-3z"/></svg>
